X: 8
T: SEVEN STEP POLKA
S: Hansen
R: polka
B: Haand me doon da fiddle, 1979
Z: 2012 John Chambers <jc:trillian.mit.edu>
M: C
L: 1/8
K: G
[|\
G2 G2 G2 G2 | FG AF G2 D2 | B2 B2 B2 B2 | AB cA B2 G2 |
e2 e2 d3 B | c2 c2 B3 G | E2 A2 A3 G | FD EF GA Bd |
e2 e2 d3 B | c2 c2 B3 G | E2 A2 A3 G | FD EF G2 D2 |]
%%begintext align
Dis t\"un wis |"osed fir an auld Shetland dance caaed be da same name.
What wye it cam ta Shetland we dinna ken.  Dere is a version o' him
in England \"osed fir a different dance.  Dis een is in G and du haes
ta geng doon ower to da third string.  Afore du plays him, try du
over da scale o' G.
%%endtext

%%sep 2 1 500
%%sep 1 1 500

